X:437
T:Steamboat Quickstep
M:6/8
K:A
e|"A"a2e c2A|"A"Ace a3|"D"agf "A"edc|"Bm"Bcd "E7"cBA|
"A"a2e c2A|"A"Ace a3|"D"agf "A"edc|"E7"edB "A"A2:|
B|"A"cee efe|"A"efe ecA|"D"d2f f2a|"D"fee "E7"e3|
"A"cee efe|"A"efe ecA|"D"agf "A"edc|"E7"edB "A"A2:|


